packages/ui-solid/icons/pin_24.svg

<svg width="24" height="24" viewBox="0 0 24 24" fill="none" xmlns="http://www.w3.org/2000/svg">
<path fill-rule="evenodd" clip-rule="evenodd" d="M14.9641 2.73277C15.5666 2.5564 16.2069 2.5564 16.8094 2.73277C17.2646 2.86602 17.6429 3.11557 18.0088 3.41953C18.3591 3.71053 18.7548 4.10099 19.2282 4.56819L19.2832 4.62243C19.7683 5.10112 20.1732 5.50068 20.4748 5.85485C20.7895 6.22441 21.0485 6.60761 21.1865 7.07081C21.3689 7.68276 21.3689 8.33461 21.1865 8.94657C21.0485 9.40976 20.7895 9.79297 20.4748 10.1625C20.1731 10.5167 19.7682 10.9163 19.2831 11.395L18.2003 12.4635C17.9133 12.7467 17.8386 12.8239 17.7802 12.9025C17.6642 13.0587 17.5801 13.2361 17.5326 13.4248C17.5086 13.5197 17.4962 13.6264 17.4585 14.0279L17.4553 14.0619C17.3706 14.965 17.3027 15.6885 17.2124 16.247C17.1232 16.7981 16.9949 17.3198 16.7144 17.7401C15.9183 18.933 14.4402 19.4713 13.0634 19.0697C12.5783 18.9282 12.1446 18.6112 11.7219 18.2464C11.2936 17.8768 10.7763 17.3664 10.1307 16.7292L9.23094 15.8413L5.42589 19.5963C5.07209 19.9454 4.50226 19.9416 4.15312 19.5878C3.80399 19.234 3.80776 18.6642 4.16156 18.3151L7.94963 14.5769L7.16279 13.8004C6.50962 13.1558 5.98693 12.64 5.60816 12.2132C5.23503 11.7927 4.90939 11.3607 4.76123 10.8763C4.33636 9.48722 4.87455 7.98407 6.08452 7.18038C6.50648 6.9001 7.03232 6.77297 7.58755 6.68486C8.15117 6.59543 8.88246 6.52861 9.79629 6.44512L9.83016 6.44202C10.2225 6.40617 10.3269 6.39429 10.4199 6.37143C10.6068 6.32549 10.7829 6.24365 10.9385 6.13045C11.016 6.0741 11.0924 6.00203 11.3728 5.72527L12.5454 4.56814C13.0188 4.10096 13.4144 3.71052 13.7647 3.41953C14.1307 3.11557 14.509 2.86602 14.9641 2.73277ZM16.3037 4.46026C16.0314 4.38057 15.7421 4.38057 15.4699 4.46026C15.3482 4.49588 15.1898 4.57582 14.9149 4.80416C14.631 5.03991 14.2902 5.3752 13.7824 5.87627L12.6371 7.00647C12.6241 7.01937 12.6112 7.03212 12.5984 7.04471C12.3745 7.26581 12.198 7.44016 11.9974 7.58609C11.653 7.83661 11.2631 8.01775 10.8495 8.1194C10.6086 8.17861 10.3615 8.2011 10.0481 8.22962C10.0303 8.23124 10.0122 8.23288 9.99395 8.23455C9.03852 8.32185 8.36711 8.38368 7.86965 8.46262C7.35685 8.54399 7.16044 8.62662 7.08045 8.67975C6.53372 9.04291 6.29053 9.72212 6.48251 10.3498C6.51059 10.4416 6.60992 10.6301 6.95453 11.0185C7.28883 11.3952 7.76842 11.8692 8.45131 12.5431L11.3707 15.424C12.0462 16.0906 12.5207 16.5582 12.8978 16.8836C13.2859 17.2185 13.4743 17.3145 13.5675 17.3417C14.1896 17.5232 14.8575 17.2799 15.2172 16.7409C15.271 16.6602 15.3536 16.4655 15.4355 15.9595C15.515 15.4678 15.5777 14.8046 15.6664 13.8597C15.6681 13.841 15.6699 13.8225 15.6716 13.8042C15.7015 13.4837 15.7251 13.231 15.7871 12.985C15.8923 12.5676 16.0785 12.1749 16.3351 11.8293C16.4863 11.6257 16.6671 11.4475 16.8963 11.2215C16.9094 11.2086 16.9226 11.1955 16.936 11.1823L17.9911 10.1411C18.511 9.628 18.8595 9.28306 19.1045 8.99542C19.3421 8.71643 19.4248 8.55553 19.4615 8.43248C19.5439 8.15596 19.5439 7.86142 19.4615 7.5849C19.4248 7.46185 19.3421 7.30095 19.1045 7.02196C18.8595 6.73432 18.511 6.38937 17.9911 5.87627C17.4833 5.3752 17.1425 5.03991 16.8587 4.80416C16.5838 4.57582 16.4253 4.49588 16.3037 4.46026Z" fill="#007AFF"/>
</svg>

<svg xmlns="http://www.w3.org/2000/svg" width="24" height="24" fill="none"><path fill="currentColor" fill-rule="evenodd" d="M14.964 2.733a3.3 3.3 0 0 1 1.845 0c.456.133.834.383 1.2.687.35.29.746.681 1.22 1.148l.054.054c.485.48.89.879 1.192 1.233.314.37.573.753.711 1.216a3.3 3.3 0 0 1 0 1.876c-.137.463-.396.846-.711 1.216-.302.354-.707.753-1.192 1.232L18.2 12.464c-.287.283-.361.36-.42.438q-.175.238-.247.523c-.024.095-.037.201-.075.603l-.003.034c-.084.903-.152 1.627-.243 2.185-.089.551-.217 1.073-.498 1.493a3.28 3.28 0 0 1-3.65 1.33c-.486-.142-.92-.459-1.342-.824-.428-.37-.946-.88-1.591-1.517l-.9-.888-3.805 3.755a.9.9 0 0 1-1.264-1.28l3.788-3.74-.787-.776c-.653-.644-1.176-1.16-1.555-1.587-.373-.42-.699-.852-.847-1.337A3.28 3.28 0 0 1 6.085 7.18c.421-.28.947-.407 1.503-.495.563-.09 1.294-.156 2.208-.24l.034-.003c.393-.036.497-.048.59-.07.187-.047.363-.128.518-.242.078-.056.154-.128.435-.405l1.172-1.157c.474-.467.87-.857 1.22-1.148.366-.304.744-.554 1.2-.687m1.34 1.727a1.5 1.5 0 0 0-.834 0c-.122.036-.28.116-.555.344-.284.236-.625.571-1.133 1.072l-1.145 1.13-.039.039c-.224.22-.4.395-.6.541-.345.25-.735.432-1.148.533-.241.06-.489.082-.802.11l-.054.006c-.955.087-1.627.149-2.124.228-.513.081-.71.164-.79.217a1.48 1.48 0 0 0-.597 1.67c.028.092.127.28.472.668.334.377.813.851 1.496 1.525l2.92 2.881c.675.667 1.15 1.134 1.527 1.46.388.334.576.43.67.458a1.48 1.48 0 0 0 1.65-.601c.053-.08.136-.276.217-.781.08-.492.143-1.155.231-2.1l.006-.056c.03-.32.053-.573.115-.819.105-.417.291-.81.548-1.156.151-.203.332-.382.561-.607l.04-.04 1.055-1.04c.52-.514.869-.859 1.114-1.147.237-.279.32-.44.357-.563a1.5 1.5 0 0 0 0-.847c-.037-.123-.12-.284-.357-.563-.245-.288-.594-.633-1.114-1.146-.508-.5-.849-.836-1.132-1.072-.275-.228-.434-.308-.555-.344" clip-rule="evenodd"/></svg>
